X:286
T: Frohe Stunde (3-88), S. 243
N: P1061
O: Lothringen
S: PINCK, Louis: Verklingende Weisen, Bd3, Metz 1933]
R: Ehe, Treue]
M: 4/4
L: 1/16
K: G
D4 | G4B4B3A2cA2 | A4G4z4
D4 | c4c4B2d2B4 | A8z4
D4 | G4B4A4B4 | c6e2d2c2
B4 | d4d4B4A4 | G8z4
D4 | G4B4A4B4 | c6e2d2c2
B4 | d4d4B4A4 | G8z4

